X: 30682
T: Orange And Blue, The
R: strathspey
M: 4/4
K: Dmajor
a>g|f>dd/d/d A>dd/d/d|f>ga<f d2 e>d|c>AA/A/A E>AA/A/A|c>de<c A2 (3bag|
f>d d2 A>d d2|f>da<f d2 (3fga|b>ga<f g>ef<d|e>c (3ABc d2||
a>g|f<a a2 f<a a2|f>da<f d2 (3def|g<b b2 g<b b2|g>eb<g e2 a>g|
f<a a2 f<a a2|f>da<f d2 (3fga|b>ga<f g>ef<d|c>eA<c d2||

